X: 1
T: The Gallowglass
R: jig
M: 6/8
L: 1/8
K: Amin
AB|cBA eBd|cAA ABc|BAG efg|BGG GAB|
cBA eBd|cea e2 d|cBA ^GAB|cAA A:|
ea|aga e=fd|cAA ABc|BAG efg|BGG G2 e|
aga e=fd|cAA e2 d|cBA ^GAB|cAA A2 e|
aga e=fd|cAA ABc|BAG e^fg|BGG G2 e|
aeg fdB|ecA BGE|ABc dBe|cAA A2||


Tune 1369	Setting 27744

